@extra/phlat-icons/symbolic/yakyak.svg

<?xml version="1.0" encoding="UTF-8" standalone="no"?>
<svg
   xmlns:dc="http://purl.org/dc/elements/1.1/"
   xmlns:cc="http://creativecommons.org/ns#"
   xmlns:rdf="http://www.w3.org/1999/02/22-rdf-syntax-ns#"
   xmlns:svg="http://www.w3.org/2000/svg"
   xmlns="http://www.w3.org/2000/svg"
   id="svg26"
   version="1.1"
   viewBox="0 0 16 16"
   width="16"
   height="16">
  <metadata
     id="metadata30">
    <rdf:RDF>
      <cc:Work
         rdf:about="">
        <dc:format>image/svg+xml</dc:format>
        <dc:type
           rdf:resource="http://purl.org/dc/dcmitype/StillImage" />
        <dc:title></dc:title>
      </cc:Work>
    </rdf:RDF>
  </metadata>
  <defs
     id="defs14" />
  <path
     id="path16"
     d="M 7.5058594 0 C 7.4958594 0.023 7.4720781 0.014625 7.4550781 0.015625 A 7.4 7.4 0 0 0 6.7460938 0.10742188 C 5.0260938 0.42742188 3.6144844 1.2547969 2.5214844 2.5917969 A 6.613 6.613 0 0 0 1.0195312 6.3574219 A 6.737 6.737 0 0 0 1.1699219 8.3808594 C 1.2839219 8.8768594 1.4526875 9.3555 1.6796875 9.8125 L 1.7402344 9.9296875 A 6.896 6.896 0 0 0 4.2167969 12.630859 C 5.3397969 13.329859 6.5664375 13.996672 7.8984375 14.013672 C 7.9794375 14.013672 8.0019531 14.033234 8.0019531 14.115234 C 7.9979531 14.815234 8 15.213109 8 15.912109 C 8 15.939109 8.0019062 15.966 8.0039062 16 L 8.0546875 15.980469 A 14.712 14.712 0 0 0 11.720703 13.607422 C 11.938703 13.412422 12.146656 13.208094 12.347656 12.996094 C 12.433656 12.905094 12.518469 12.812656 12.605469 12.722656 C 12.738469 12.582656 12.853516 12.42825 12.978516 12.28125 C 13.123516 12.11125 13.253813 11.931953 13.382812 11.751953 C 13.665812 11.351953 13.917859 10.930234 14.130859 10.490234 C 14.238859 10.266234 14.340641 10.0425 14.431641 9.8125 L 14.441406 9.8007812 C 14.688406 9.1707812 14.846641 8.5186094 14.931641 7.8496094 C 14.960641 7.6166094 14.980187 7.3804844 14.992188 7.1464844 A 6.384 6.384 0 0 0 14.892578 5.6445312 A 6.754 6.754 0 0 0 13.117188 2.1777344 A 7.018 7.018 0 0 0 8.8222656 0.04296875 C 8.6922656 0.02796875 8.5606406 0.03 8.4316406 0 L 7.5058594 0 z M 6.8125 5 L 6.8125 5.0019531 A 0.334 0.334 0 0 1 7.1425781 5.2714844 C 7.1535781 6.0714844 7.1484375 6.871875 7.1484375 7.671875 C 7.1664375 8.115875 7.1086719 8.57175 6.8886719 8.96875 C 6.6476719 9.43475 6.1957812 9.7886406 5.6757812 9.9316406 C 5.4867813 9.9756406 5.0188281 10.116016 5.0488281 9.7910156 C 5.0488281 9.0240156 5.0485625 9.0252969 5.2265625 9.0292969 C 5.5095625 8.9722969 5.8089375 8.8545625 5.9609375 8.6015625 C 6.0579375 8.4265625 6.1494219 8.2107187 6.1074219 8.0117188 L 4.4453125 8.0097656 C 4.2603125 8.0367656 4.0457187 7.9380469 4.0117188 7.7480469 C 3.9997187 6.9780469 4.0098125 6.2075 4.0078125 5.4375 C 3.9688125 5.2545 4.07325 5.0358594 4.28125 5.0058594 C 5.12425 4.9938594 5.9685 5.003 6.8125 5 z M 11.662109 5 L 11.660156 5.0019531 A 0.334 0.334 0 0 1 11.990234 5.2714844 C 12.001234 6.0714844 11.996094 6.871875 11.996094 7.671875 C 12.014094 8.115875 11.956328 8.57175 11.736328 8.96875 C 11.496328 9.43475 11.046391 9.7886406 10.525391 9.9316406 C 10.336391 9.9756406 9.8684375 10.116016 9.8984375 9.7910156 C 9.8984375 9.0240156 9.8981719 9.0252969 10.076172 9.0292969 C 10.359172 8.9722969 10.656594 8.8545625 10.808594 8.6015625 C 10.905594 8.4265625 10.997078 8.2107187 10.955078 8.0117188 L 9.2949219 8.0097656 C 9.1099219 8.0367656 8.8943281 7.9380469 8.8613281 7.7480469 C 8.8483281 6.9780469 8.8604219 6.2075 8.8574219 5.4375 C 8.8194219 5.2545 8.9228594 5.0358594 9.1308594 5.0058594 C 9.9738594 4.9938594 10.818109 5.003 11.662109 5 z "
     style="fill:#f1f2f2" />
</svg>

<svg xmlns="http://www.w3.org/2000/svg" viewBox="0 0 16 16">
    <path d="M7.506 0c-.01.023-.034.015-.05.016a7.4 7.4 0 0 0-.71.091c-1.72.32-3.132 1.148-4.225 2.485A6.613 6.613 0 0 0 1.02 6.357a6.737 6.737 0 0 0 .15 2.024c.114.496.283.974.51 1.431l.06.118a6.896 6.896 0 0 0 2.477 2.7c1.123.7 2.35 1.367 3.681 1.384.081 0 .104.02.104.101-.004.7-.002 1.098-.002 1.797 0 .027.002.054.004.088l.05-.02a14.712 14.712 0 0 0 3.667-2.373c.218-.195.426-.399.627-.61.086-.092.17-.184.257-.274.133-.14.249-.295.374-.442.145-.17.275-.349.404-.529.283-.4.535-.822.748-1.262a10.2 10.2 0 0 0 .3-.678l.01-.011a8.08 8.08 0 0 0 .49-1.951c.03-.233.05-.47.061-.704a6.384 6.384 0 0 0-.1-1.501 6.754 6.754 0 0 0-1.775-3.467A7.018 7.018 0 0 0 8.822.043C8.692.028 8.561.03 8.432 0h-.926zm-.694 5v.002a.334.334 0 0 1 .33.27c.012.8.006 1.6.006 2.4.018.444-.04.9-.26 1.297a1.95 1.95 0 0 1-1.212.963c-.19.044-.657.184-.627-.141 0-.767 0-.766.178-.762.283-.057.582-.174.734-.427.097-.175.188-.391.146-.59L4.445 8.01c-.185.027-.4-.072-.433-.262-.012-.77-.002-1.54-.004-2.31-.04-.183.065-.402.273-.432.843-.012 1.688-.003 2.532-.006zm4.85 0l-.002.002a.334.334 0 0 1 .33.27c.011.8.006 1.6.006 2.4.018.444-.04.9-.26 1.297-.24.466-.69.82-1.21.963-.19.044-.658.184-.628-.141 0-.767 0-.766.178-.762.283-.057.58-.174.733-.427.097-.175.188-.391.146-.59l-1.66-.002c-.185.027-.4-.072-.434-.262-.013-.77 0-1.54-.004-2.31-.038-.183.066-.402.274-.432.843-.012 1.687-.003 2.531-.006z" fill="#f1f2f2"/>
</svg>
